dist/assets/img/questions/4/backdrop-active.svg

<svg width="715" height="653" viewBox="0 0 715 653" fill="none" xmlns="http://www.w3.org/2000/svg">
<g filter="url(#filter0_di_1495_69000)">
<path fill-rule="evenodd" clip-rule="evenodd" d="M319.26 28.9287C236.166 25.3374 154.049 29.6278 93.9194 88.3214C26.7443 153.892 19.9377 412.762 87.0737 492.194C141.601 556.708 226.231 605.592 349.453 600.144C463.558 595.098 565.325 548.428 604.039 392.055C606.235 383.183 615.109 377.653 624.197 378.623C639.44 380.249 657.221 379.251 673.95 371.685C674.15 371.595 674.114 371.302 673.899 371.264C656.512 368.185 636.847 364.703 621.662 353.757C615.768 349.508 613.726 341.984 614.669 334.78C620.059 293.6 621.929 246.413 619.691 192.428C614.259 61.3811 461.439 35.0736 319.26 28.9287Z" fill="white"/>
</g>
<defs>
<filter id="filter0_di_1495_69000" x="0" y="0" width="714.082" height="652.559" filterUnits="userSpaceOnUse" color-interpolation-filters="sRGB">
<feFlood flood-opacity="0" result="BackgroundImageFix"/>
<feColorMatrix in="SourceAlpha" type="matrix" values="0 0 0 0 0 0 0 0 0 0 0 0 0 0 0 0 0 0 127 0" result="hardAlpha"/>
<feOffset dy="12"/>
<feGaussianBlur stdDeviation="20"/>
<feComposite in2="hardAlpha" operator="out"/>
<feColorMatrix type="matrix" values="0 0 0 0 0.909804 0 0 0 0 0.313726 0 0 0 0 0.470588 0 0 0 1 0"/>
<feBlend mode="normal" in2="BackgroundImageFix" result="effect1_dropShadow_1495_69000"/>
<feBlend mode="normal" in="SourceGraphic" in2="effect1_dropShadow_1495_69000" result="shape"/>
<feColorMatrix in="SourceAlpha" type="matrix" values="0 0 0 0 0 0 0 0 0 0 0 0 0 0 0 0 0 0 127 0" result="hardAlpha"/>
<feOffset dy="-4"/>
<feGaussianBlur stdDeviation="4"/>
<feComposite in2="hardAlpha" operator="arithmetic" k2="-1" k3="1"/>
<feColorMatrix type="matrix" values="0 0 0 0 0.909804 0 0 0 0 0.313726 0 0 0 0 0.470588 0 0 0 0.48 0"/>
<feBlend mode="normal" in2="shape" result="effect2_innerShadow_1495_69000"/>
</filter>
</defs>
</svg>

<svg width="715" height="653" viewBox="0 0 715 653" fill="none" xmlns="http://www.w3.org/2000/svg"><g filter="url(#filter0_di_1495_69000)"><path fill-rule="evenodd" clip-rule="evenodd" d="M319.26 28.929c-83.094-3.592-165.211.699-225.34 59.392-67.176 65.571-73.982 324.441-6.846 403.873 54.527 64.514 139.157 113.398 262.379 107.95 114.105-5.046 215.872-51.716 254.586-208.089 2.196-8.872 11.07-14.402 20.158-13.432 15.243 1.626 33.024.628 49.753-6.938.2-.09.164-.383-.051-.421-17.387-3.079-37.052-6.561-52.237-17.507-5.894-4.249-7.936-11.773-6.993-18.977 5.39-41.18 7.26-88.367 5.022-142.352-5.432-131.047-158.252-157.354-300.431-163.5z" fill="#fff"/></g><defs><filter id="filter0_di_1495_69000" x="0" y="0" width="714.082" height="652.559" filterUnits="userSpaceOnUse" color-interpolation-filters="sRGB"><feFlood flood-opacity="0" result="BackgroundImageFix"/><feColorMatrix in="SourceAlpha" values="0 0 0 0 0 0 0 0 0 0 0 0 0 0 0 0 0 0 127 0" result="hardAlpha"/><feOffset dy="12"/><feGaussianBlur stdDeviation="20"/><feComposite in2="hardAlpha" operator="out"/><feColorMatrix values="0 0 0 0 0.909804 0 0 0 0 0.313726 0 0 0 0 0.470588 0 0 0 1 0"/><feBlend in2="BackgroundImageFix" result="effect1_dropShadow_1495_69000"/><feBlend in="SourceGraphic" in2="effect1_dropShadow_1495_69000" result="shape"/><feColorMatrix in="SourceAlpha" values="0 0 0 0 0 0 0 0 0 0 0 0 0 0 0 0 0 0 127 0" result="hardAlpha"/><feOffset dy="-4"/><feGaussianBlur stdDeviation="4"/><feComposite in2="hardAlpha" operator="arithmetic" k2="-1" k3="1"/><feColorMatrix values="0 0 0 0 0.909804 0 0 0 0 0.313726 0 0 0 0 0.470588 0 0 0 0.48 0"/><feBlend in2="shape" result="effect2_innerShadow_1495_69000"/></filter></defs></svg>
